X:8056
T:Jockey to the Fair. JC.077
M:6/8
L:1/8
Q:100
S:John Clare,Poet,Helpston. (1793-1864)
R:Air
O:England
A:Northamptonshire
N:
Z:P Headford
K:G
D|G2AB2c|d2gd2c|(Bd)G (GF)G|AB/c/ BA2d|!
(d^c)(d e)fg|(fa)fe2g|f(ed) (Ad)^c|d3-d2:|!
|:d|(af)d (af)d|c2cB2c|(df)d (dg)d|c2cB2B|!
e2fg2f|e2fB2e|e^deB2A|G2FE2F|G2GG2B|!
d3g3|dBG A2B|E2FG2A|B2g (Bc)A|G3-G2:|]
W:Song text exists. See Deacon.


